app/dist/common/images/multilaser-on-ed-nm.svg

<svg fill="none" height="18" width="18" xmlns="http://www.w3.org/2000/svg"><path d="m0 0h18v18h-18z" fill="#0086f9"/><path d="m13.73 5h-2.134c-.319 0-.51.122-.595.372l-1.995 5.628-2.001-5.628c-.085-.25-.277-.372-.595-.372h-2.133a.278.278 0 0 0 -.277.285v7.43c-.006.157.12.28.283.285h1.429a.288.288 0 0 0 .288-.28v-4.58c-.003-.082.031-.135.074-.14.031-.003.066.019.094.075l1.66 4.588a.49.49 0 0 0 .499.337h1.34c.246 0 .415-.11.505-.337l1.66-4.588c.026-.053.06-.076.09-.075.044.002.082.056.078.14v4.575c-.006.157.12.28.282.285h1.43a.29.29 0 0 0 .288-.285v-7.43a.277.277 0 0 0 -.27-.285z" fill="#fff"/></svg>

<!-- by TradingView --><svg width="18" height="18" fill="none" xmlns="http://www.w3.org/2000/svg"><path fill="#0086F9" d="M0 0h18v18H0z"/><path d="M13.73 5h-2.134c-.319 0-.51.122-.595.372L9.006 11 7.005 5.372C6.92 5.122 6.728 5 6.41 5H4.277A.278.278 0 0 0 4 5.285v7.43c-.006.157.12.28.283.285h1.429A.288.288 0 0 0 6 12.72V8.14c-.003-.082.031-.135.074-.14.031-.003.066.019.094.075l1.66 4.588a.49.49 0 0 0 .499.337h1.34c.246 0 .415-.11.505-.337l1.66-4.588c.026-.053.06-.076.09-.075.044.002.082.056.078.14v4.575c-.006.157.12.28.282.285h1.43a.29.29 0 0 0 .288-.285v-7.43A.277.277 0 0 0 13.73 5Z" fill="#fff"/></svg>
